X:1
T:The Hope Set Before You
T:The Hope Set Before You
T:Edwin Othello Excell
T:Frances Jane (Fanny) Crosby, 1910
T:Public Domain Courtesy of the Cyber Hymnal™
T:Public Domain Courtesy of the Cyber Hymnal™
C:Edwin Othello Excell
Z:Public Domain
Z:Courtesy of the Cyber Hymnal™
%%score ( 1 2 ) 3
L:1/8
Q:1/4=110
M:9/8
K:Bb
V:1 treble 
V:2 treble 
V:3 bass 
V:1
 [DF]3 | [DF]4 [B,D][CE] [DF][EG][CEFA] | [DFB]3 [DF]3 [GB]3 | [FA]4 [EG][DF] [CE][DF][CE] | %4
w: 1.~Lay|hold on the hope set be-|fore you, And|let not a mo- ment be|
w: 2.~Lay|hold on the hope set be-|fore you, Of|life that you now may re-|
w: 3.~Lay|hold on the hope set be-|fore you, Of|joy that no mor- tal can|
w: 4.~Lay|hold on the hope set be-|fore you, A|hope that is stead- fast and|
 [B,D]6 [DF]3 | [DF]4 [B,D][CE] [DF][EG][CEFA] | [DFB]3 [DF]3 [Fd]3 | %7
w: lost, The|Sav- ior has pur- chased your|ran- som, But|
w: ceive, If,|glad- ly His mer- cy ac-|cept- ing, You|
w: speak; It|tell- eth of rest for the|wear- y, Through|
w: sure; O|haste to the bless- èd Re-|deem- er, The|
 [=Ec]4 [EG][Ed] [Ec][EG][Ed] | [EFc]6 ||"^Refrain" [EF]3 | [DFd]4 [CFA][DFB] [EFc][DFB][B,D] | %11
w: think what a price it hath|cost!|||
w: tru- ly re- pent and be-|lieve.|Lay|hold on e- ter- nal sal-|
w: Je- sus, the low- ly and|meek.|||
w: lov- ing, the per- fect and|pure.|||
 [DF]3 [EF]3 [EF]3 | [ce]4 [Bd][Ac] [GB][FA][EG] | [DF]2 [CE] [B,D]3 [DF]3 | %14
w: |||
w: va- tion, Lay|hold on the gift of God’s|on- ly Son; Lay|
w: |||
w: |||
 [DFB]4 [CFA][DFB] [EFAc][DFB][EFAc] | [DFBd]3 !fermata![EG_ABf]3 [GBe]3 | %16
w: ||
w: hold on His in- fi- nite|mer- cy, Lay|
w: ||
w: ||
 [FBd]4 [EFAc][DFB] !fermata!c2 [F-A]/ [DFB] | [DFB]6 |] %18
w: ||
w: hold on the Might- y One!||
w: ||
w: ||
V:2
 x3 | x9 | x9 | x9 | x9 | x9 | x9 | x9 | x6 || x3 | x9 | x9 | x9 | x9 | x9 | x9 | x6 [F-GA]/F x2 | %17
 x6 |] %18
V:3
 [B,,B,]3 | [B,,B,]4 [B,,F,][B,,F,] [B,,B,][B,,B,][B,,B,] | [B,,F,]3 [B,,B,]3 [B,,F,]3 | %3
w: ~|~ ~ ~ ~ ~ ~|~ ~ ~|
 [F,,F,]4 [F,,F,][F,,F,] [F,,F,][F,,F,][F,,F,] | [B,,F,]6 [B,,B,]3 | %5
w: ~ ~ ~ ~ ~ ~|~ ~|
 [B,,B,]4 [B,,F,][B,,F,] [B,,B,][B,,B,][B,,B,] | [B,,F,]3 [B,,B,]3 [B,,B,]3 | %7
w: ~ ~ ~ ~ ~ ~|~ ~ ~|
 [C,B,]4 [C,B,][C,B,] [C,B,][C,B,][C,B,] | [F,A,]6 || [F,A,]3 | %10
w: ~ ~ ~ ~ ~ ~|~|Lay|
 [B,,F,B,]2 [B,,F,B,] [B,,F,B,]4 [B,,F,B,][B,,F,B,] | %11
w: hold, lay hold on et-|
 [B,,F,B,][B,,F,B,][B,,F,B,] [C,F,A,] [F,,F,A,]2 [F,,F,A,]3 | %12
w: ter- nal sal- va- tion, Lay|
 [F,,F,]2 [F,,F,F] [F,,F,F]4 [F,,F,F][F,,F,E] | [F,,F,D]2 [F,,F,C] [B,,F,B,]3 [B,,F,B,]3 | %14
w: hold, lay hold on God’s|on- ly Son; Lay|
 [B,,F,B,]2 [B,,F,B,] [B,,F,B,]4 [B,,F,B,][B,,F,B,] | [B,,F,B,]3 [D,B,]3 [E,B,]3 | %16
w: hold, lay hold on His|mer- cy, Lay|
 [F,,F,B,]2 [F,,F,F] [F,,F,F][F,,F,E][F,,F,D] [F,,F,E]2 [B,,B,D] x/ | [B,,B,D]6 |] %18
w: hold, lay hold on the Might- y|One!|

